X:725
T:My Old Man said Follow the Van
C:Fred W. Leigh 1919
M:2/2
R:Reel
L:1/4
S:Colin Hume's website,  colinhume.com  - chords can also be printed below the stave.
Q:1/2=120
K:G
"G"d2 e2 | "Em"B3 G | "A7"A B2 A | E3 ^E | "D"F2 d>e | dc A^A | "G"B4- | B4 |
"B7"B2 Bc | B2 AF | A2 B2 | "Em"A G3 | "A7"A2 AB | A2 GE | "D"F2 "A7"G2 | "D"AdBc |
"G"d d2 B | "D"c d3 | "G"d d2 B | "D"c d3 | "G"d>e dB | "A7"AG EG | "D"A4- | A2 D2 |
"G"G2 GA | "G7"BG AG | "Am"A2 B2 | cA Bc | "D"d2 e2 | B2 A2 | "G"G4- | G4 |]

